X:44
T:The Advent of Our God
%%stretchlast false
M:4/4
L:1/4
K:Eb clef=C1
"^I"[E,,E,G,B,] "^I¹"[G,,E,B,E] "^I"[E,,G,B,E] [E,B,G] | "^V¹"[D,F,B,F]/ "^II7²"[C,F,=A,E]/ "^V"[B,,D,B,F]3 | "^I"[E,B,EG]/ "^V7²"[F,B,DA]/ "^I¹"[G,B,EB] "^V7²"[F,B,DA]/ "^I"[E,B,EG]/ "^ii"[F,A,CA]/ [F,A,DA]/ | "^I"[E,B,EG] "^V"[B,,B,DF]3 | "^V¹"[D,F,B,B] "^I"[E,B,G] "^I¹"[G,,E,B,E] "^V"[B,,D,B,F] | "^V¹"[D,F,B,] "^I"[E,G,B,E]/ [E,G,B,F]/ "^vi"[C,E,EG]/ "^♭v°¹"[C,E,E=A]/ "^V"[B,,F,DB]3/2 | "^I"[E,G,EB]/ "^IV"[A,,A,Ec] "^I¹"[G,,B,EB]/ "^IV"[A,,CEA]/ "^I²"[B,,B,EG] | "^V7"[B,,A,DF] "^I"[E,,G,B,E]3 |]
